X:15559
T:Sl\"angpolska from Sk\aa{}ne
R:Polska
R:Sl\"angpolska
O:Sweden
M:3/4
A:Sk\aa{}ne
K:DDor
A2|\
d>^c de fd|e>f ef ef|d>^c de fd|e/d/^c/B/ A4:|
|:\
af ff a2|g/f/e/d/ c/d/e/f/ g2|\
af ff a2|g/f/e/d/ c/d/e/f/ g2|\
ag/f/ gf/e/ fe/d/|ed/^c/ d4:|
